!!!OTL: Dangzongyang ba lantian cajingle
!!!ARE: Asia, China,ÿGansu Linxia
!! I, 111
!!!SCT: C1807
!!!YEM: Copyright 1995, estate of Helmut Schaffrath.
**kern
*ICvox
*Ivox
*M2/4
*k[b-e-a-]
*E-:
{16gg
16gg
=1
8gg
8gg
8gg
16ff
16gg
=2
16ee-
16ff
16ee-
16cc
4cc
=3
8.b-
16cc
16ee-
16ff
8gg
=4
[2ff
=5
4ff]}
{16gg
16ff
16gg
16bb-
=6
4.bb-
8ccc
=7
4ee-
4cc
=8
4gg
8gg
8bb-
=9
2bb-
=10
4bb-}
{8r
16ee-
16ee-
=11
8ee-
8ee-
8cc
16b-
16cc
=12
4gg
8gg
8bb-
=13
8gg
8gg
4gg
=14
8ff
8ee-
8cc
8r}
=15
{8cc
8ee-
16ee-
16ff
8gg
=16
8ff
8ee-
4cc
=17
8cc
8b-
4b-
=18
2b-
=19
4g
8r}
==
!!!AGN: Shange, Huar, Nanxiangling
!! Han Hui
!!!ONB: ESAC (Essen Associative Code) Database: SENGANSU
!!!AMT: simple duple
!!!AIN: vox
!!!EED: Helmut Schaffrath
!!!EEV: 1.0
*-
!!!ONB: Tied note syntax fixed by Craig Sapp, 2004/05/03/
